X:1
T:Title
%%score { ( 1 3 ) | ( 2 4 ) }
L:1/8
Q:1/4=150
M:6/4
K:Eb
V:1 treble nm="Grand Piano"
V:3 treble 
V:2 bass 
V:4 bass 
V:1
 G2 _G2 =G2 [FA]2 [EG]2 [FA]2 | [GB]2 [Ac]2 [GB]2 G6 | E2 E2 E2 [EF]4 [EG]2 | [DF]12 | %4
w: Haldor~Lillenas * * * * *||||
 G2 _G2 =G2 [FA]2 [=EG]2 [FA]2 | [GB]2 [Ac]2 [GB]2 G6 | F2 G2 A2 G4 [DF]2 | E12 | [Ge]6 [Gd]6 | %9
w: |||||
 [_Gc]6 [=GB]6 | G2 _G2 =G2 A4 G2 | F12 |[M:3/4] G2 G2 G2 | A2 A2 A2 |[M:6/4] z6 c6 | %15
w: ||||||
 [CEF]2 [C=EG]2 [CFA]2 [B,_EG]4 [A,DF]2 | E12 |] %17
w: ||
V:2
 [E,B,E]2 [E,=A,E]2 [E,B,E]2 [B,,B,]2 [B,,B,]2 [B,,B,]2 | [E,B,]2 [E,B,]2 [E,B,]2 [E,B,E]6 | %2
 [E,G,]2 [E,G,]2 [E,G,]2 [C,=A,]4 [F,A,]2 | [B,,B,]12 | %4
 [E,B,E]2 [E,=A,E]2 [E,B,E]2 [B,,B,]2 [B,,B,]2 [B,,B,]2 | [E,B,]2 [E,B,]2 [E,B,]2 [E,B,E]6 | %6
 [A,CE]2 [G,C=E]2 [F,CF]2 [B,_E]4 [B,,A,]2 | .G,6 z6 | [E,B,]6 [E,B,]6 | [E,=A,]6 [E,B,]6 | %10
 [E,B,E]2 [E,=A,E]2 [E,B,E]2 [E,CE]4 [E,B,E]2 | [D,B,]4 [C,A,]2 [B,,B,]4 [B,,B,]2 | %12
[M:3/4] [E,B,E]2 [E,B,E]2 [E,B,E]2 | [F,B,D]2 [F,B,D]2 [F,B,D]2 | %14
[M:6/4] [G,B,_D]2 [G,B,D]2 [G,B,D]2 .[A,C]6 | A,,2 G,,2 F,,2 B,,4 B,,2 | z4 A,2 .G,6 |] %17
V:3
 x12 | x12 | x12 | x12 | x12 | x12 | x12 | z4 C2 .B,6 | x12 | x12 | x12 | z4 E2 D4 [DF]2 | %12
[M:3/4] x6 | x6 |[M:6/4] B2 G2 E2 z2 E4 | x12 | G,4 C2 .B,6 |] %17
V:4
 x12 | x12 | x12 | x12 | x12 | x12 | x12 | E,4- [E,-A,]2 [E,G,]6 | x12 | x12 | x12 | x12 | %12
[M:3/4] x6 | x6 |[M:6/4] x12 | x12 | E,12 |] %17

